X:1
T:Laudate pueri Dominum
T:Leon Leoni
T:Laudate pueri Dominum
T:Psalm 112 (113)
C:Leon Leoni
%%score [ 1 2 3 ] 4
L:1/8
Q:1/4=120
M:4/4
K:F
V:1 alto1 nm="Cantus 1" snm="C1"
V:2 alto1 nm="Cantus 2" snm="C2"
V:3 bass nm="Bassus" snm="B"
V:4 bass nm="Partitura" snm="Ptra"
V:1
 x8 | z2 z2 z2 x2 | z8 | z8 | z8 | z8 | z8 | A8 | B4 c4- | c4 =B4 | c8 | d8 | c2 d2 B2 c2 | %13
w: |||||||2.Sit nomen Domini|be- ne-|di- *|ctum|ex hoc nunc et us-|que in sae- cu-|
 A2 A2 B4- | B2 A2 G3 G | A8 | z8 | z8 | z8 | z8 | z8 | z8 | F8 | G8 | A8 | z8 | c3 c c2 c2 | d8 | %28
w: lum, in sae-|* * * cu-|lum.|||||||4.Ex-|cel-|sus||su- per om- nes|gen-|
 c8 | dcBc dcBA | G2 A2 G3 G | A8 | c4 c2 c2 | d4 c2 _e2- | e_e e2 d4 | c4 c4- | c4 B2 A2 | %37
w: tes|Do- * * * * * * *|* * * mi-|nus,|et su- per|cae- los glo-|* ri- a e-|ius, glo-|* ri- a|
 G2 F2 G4 | A4 z2 AB | cBAG FGAB | c4 c2 c2 | d8 | !fermata!c8 | z8 | z8 | z8 | z8 | z8 | z8 | z8 | %50
w: e- * *|ius, glo- *||* ri- a|e-|ius.||||||||
 z8 | z8 | A8 | B4 c4 | d6 d2 | c8 | G8 | A4 B4 | c6 BA | G2 A2 B2 c2 | d6 cB | A2 B2 c4- | %62
w: ||6.Suscitans a|ter- ra|i- no-|pem,|et de stercore e-|ri- gens|pau- * *||||
 c2 BA G2 G2 | A8 | z8 | z8 | z8 | z8 | z8 | z8 | z8 | z8 | z8 | z8 | z8 | A8 | =B4 c4- | c4 =B4 | %78
w: * * * * pe-|rem:||||||||||||8.Qui habitare facit steri-|lem in|_ do-|
 c8 | d8 | c2 d2 B4 | c2 A2 B3 A | G2 F2 G4 | A2 c2 d4 | !fermata!c8 | z8 | z8 | z8 | z8 | z8 | %90
w: mo,|matrem filio-|rum lae- tan-|tem, lae- tan- *||tem, lae- tan-|tem.||||||
 F4 F4 | G8 | A8 | z8 | c3 c c2 c2 | d8 | c8 | defe dcBA | G2 A2 G4 | A8 | c3 c c2 c2 | d4 c3 d | %102
w: 10.Si- cut|e-|rat||in prin- ci- pi-|o|et|nunc _ _ _ _ _ _ _|_ et sem-|per,|et in sae- cu-|la sae- cu-|
 _e2 e2 d4 | c4 A2 B2 | c3 B/c/ d2 D2 | E2 F4 E2 | F2 AB cBAG |"^rit." FGAB c2 c2 | d8 | %109
w: lo- rum, A-|men, sae- cu-|lo- * * * rum,|A- * *|men, sae- cu- lo- * * *|* * * * * rum,|A-|
 !fermata!c8 |] %110
w: men.|
V:2
 x8 | z2 z2 z2 x2 | z8 | z8 | z8 | z8 | z8 | F8 | F4 E4 | D8 | E8 | B8 | A2 B2 G2 A2 | F4 F2 G2- | %14
w: |||||||2.Sit nomen Domini|be- ne-|di-|ctum|ex hoc nunc et us-|que in sae- cu-|lum, in sae-|
 G2 F4 E2 | F8 | z8 | z8 | z8 | z8 | z8 | z8 | z8 | z8 | F8 | G8 | A8 | B3 B B2 B2 | A6 F2 | %29
w: * * cu-|lum.|||||||||4.Ex-|cel-|sus|su- per om- nes|gen- tes|
 Bcdc BAGF | E2 F4 E2 | F8 | A4 G2 A2 | B4 A2 c2- | cc c2 =B4 | c4 A4- | A4 G2 F2 | E2 F4 E2 | F8 | %39
w: Do- * * * * * * *|* * mi-|nus,|et su- per|cae- los glo-|* ri- a e-|ius, glo-|* ri- a|e- * *|ius,|
 z2 AB cBAG | A4 FGAF | B2 B2 B4 | A8 | z8 | z8 | z8 | z8 | z8 | z8 | z8 | z8 | z8 | F8 | F4 G4 | %54
w: glo- * * * * *|* ri- * * *|* a e-|ius.||||||||||6.Suscitans a|ter- ra|
 B6 B2 | A8 | E8 | F4 G4 | A6 GF | E2 F2 G2 FE | D2 E2 F4- | F2 G2 A2 GF | E2 F4 E2 | F8 | z8 | %65
w: i- no-|pem,|et de stercore e-|ri- gens|pau- * *||||* * pe-|rem:||
 z8 | z8 | z8 | z8 | z8 | z8 | z8 | z8 | z8 | z8 | F8 | F4 G4 | G8 | G8 | B8 | A2 F2 GABG | %81
w: ||||||||||8.Qui habitare facit steri-|lem in|do-|mo,|matrem filio-|rum lae- tan- * * *|
 AGFE DEFD | E2 F4 E2 | F2 A2 B4 | A8 | z8 | z8 | z8 | z8 | z8 | z8 | z8 | F4 F4 | G8 | A8 | %95
w: ||tem, lae- tan-|tem.||||||||10.Si- cut|e-|rat|
 B3 B B2 B2 | A4 A4 | Bcdc BAGF | E2 F2 E4 | F8 | A3 A G2 A2 | B4 A3 B | c2 c2 =B4 | c4 c2 B2 | %104
w: in prin- ci- pi-|o et|nunc _ _ _ _ _ _ _|_ et sem-|per,|et in sae- cu-|la sae- cu-|lo- rum, A-|men, sae- cu-|
 A4 G2 B2- | B2 A2 G4 | A4 z2 AB | cBAG FGAF | B2 B2 B4 | A8 |] %110
w: lo- rum, A-||men, sae- cu-|lo- * * * * * * *|* rum, A-|men.|
V:3
 x8 | z2 z2 z2 x2 | F,2 (G,2 A,2) A,2 | A,2 A,2 G,2 A,2 | F,2 F,4 A,2 | A,2 A,2 F,2 (G,2 | %6
w: ||1.Lau- da- * te,|pu- er- i, Do-|mi- num; lau-|da- te no- men|
 A,2) G,2 F,2 !fermata!F,2 | F,8 | D,4 C,4 | G,8 | C,8 | B,,8 | F,2 D,2 _E,2 C,2 | D,4 B,,4 | %14
w: _ Do- mi- ni.|2.Sit nomen Domini|be- ne-|di-|ctum|ex hoc nunc et us-|que in sae- cu-|lum, in|
 C,6 C,2 | F,,8 | F,2 (G,2 A,2) A,2 | A,2 A,2 A,2 A,2 | A,2 G,2 A,4 | F,4 A,2 A,2 | %20
w: sae- cu-|lum.|3.A so- * lis|or- tu us- que|ad oc- ca-|sum lau- da-|
 A,2 A,2 F,2 (G,2 | A,2) G,2 F,2 !fermata!F,2 | F,8- | F,4 E,4 | F,4 D,4 | C,8 | F,,8 | %27
w: bi- le no- men|_ Do- mi- ni.|4.Ex-|* cel-|sus, Ex-|cel-|sus|
 B,,3 B,, B,,2 B,,2 | F,4 F,4 | B,,8 | C,8 | F,,8 | F,4 E,2 F,2 | B,,4 F,2 C,2- | C,C, C,2 G,4 | %35
w: su- per om- nes|gen- tes|Do-|mi-|nus,|et su- per|cae- los glo-|* ri- a e-|
 C,4 F,,4 | A,,4 B,,4 | C,8 | F,,8 | F,8 | F,4 F,4 | B,,8 | F,,8 | F,2 (G,2 A,2) A,2 | %44
w: ius, glo-|ri- a|e-|ius,|glo-|ri- a|e-|ius.|5.Quis si- * cut|
 A,2 A,2 A,2 A,2 | A,2 A,2 A,2 A,2 | A,2 A,2 G,2 A,2 | F,2 F,4 A,2 | A,2 A,2 A,2 A,2 | %49
w: Do- mi- nus De-|us no- ster, qui|in al- tis ha-|bi- tat, et|hu- mi- li- a|
 A,2 A,2 A,2 A,2 | A,2 A,2 F,2 (G,2 | A,2) G,2 !fermata!F,4 | F,8 | D,4 C,4 | B,,6 B,,2 | F,,8 | %56
w: re- spi- cit in|cae- lo et in|_ ter- ra?|6.Suscitans a|ter- ra|i- no-|pem,|
 C,8 | A,,4 G,,4 | F,,8 | C,4 G,,4- | G,,4 D,4- | D,2 C,B,, A,,2 B,,2 | C,4 C,4 | F,,8 | z8 | z8 | %66
w: et de stercore e-|ri- gens|pau-|pe- rem,|_ pau-||* pe-|rem:|||
 z8 | z8 | z8 | F,2 (G,2 A,2) A,2 | A,2 A,2 A,2 A,2 | G,2 A,2 F,2 F,2- | F,2 A,2 A,2 A,2 | %73
w: |||7.ut col- * lo-|cet e- um cum|prin- ci- pi- bus,|_ cum prin- ci-|
 A,2 A,2 A,2 F,2 | (G,2 A,2) G,2 !fermata!F,2 | F,8 | D,4 C,4 | G,8 | C,8 | B,,8 | F,2 D,2 _E,4 | %81
w: pi- bus po- pu-|li _ su- i.|8.Qui habitare facit steri-|lem in|do-|mo,|matrem filio-|rum lae- tan-|
 C,2 D,2 B,,4 | C,8 | F,,2 F,2 B,,4 | F,,8 | F,2 (G,2 A,2) A,2 | A,2 A,2 G,2 A,2 | F,2 F,4 A,2 | %88
w: tem, lae- tan-||tem, lae- tan-|tem.|9.Glo- ri- * a|Pa- tri et Fi-|li- o et|
 A,2 A,2 F,2 (G,2 | A,2) G,2 !fermata!F,4 | F,8- | F,4 E,4 | F,G,A,G, F,E,D,C, | B,,4 C,4 | F,,8 | %95
w: Spi- ri- tu- i|_ San- cto,|10.Si-|* cut|e- * * * * * * *||rat|
 B,,3 B,, B,,2 B,,2 | F,4 F,4 | B,,4 B,,4 | C,8 | F,,8 | F,3 F, E,2 F,2 | B,,4 F,3 F, | %102
w: in prin- ci- pi-|o et|nunc et|sem-|per,|et in sae- cu-|la sae- cu-|
 C,2 C,2 G,4 | C,4 F,,2 G,,2 | A,,4 B,,4 | C,8 | F,,8 | F,3 F, F,2 F,2 | B,,8 | F,,8 |] %110
w: lo- rum, A-|men, sae- cu-|lo- rum,|A-|men,|sae- cu- lo- rum,|A-|men.|
V:4
 x8 | z2 z2 z2 x2 | z8 | z8 | z8 | z8 | z8 | F,8 | D,4 C,4 | G,,8 | C,8 | B,,8 | F,2 D,2 _E,2 C,2 | %13
 D,4 B,,4 | C,6 C,2 | F,,8 | z8 | z8 | z8 | z8 | z8 | z8 | F,8- | F,4 E,4 | F,4 D,4 | C,8 | F,,8 | %27
 B,,3 B,, B,,2 B,,2 | F,4 F,4 | B,,8 | C,8 | F,,8 | F,4 E,2 F,2 | B,,4 F,2 C,2- | C,C, C,2 G,4 | %35
 C,4 F,,4 | A,,4 B,,4 | C,8 | F,,8 | F,8 | F,4 F,4 | B,,8 | F,,8 | z8 | z8 | z8 | z8 | z8 | z8 | %49
 z8 | z8 | z8 | F,8 | D,4 C,4 | B,,6 B,,2 | F,,8 | C,8 | A,,4 G,,4 | F,,8 | C,4 G,,4- | G,,4 D,4- | %61
 D,2 C,B,, A,,2 B,,2 | C,4 C,4 | F,,8 | z8 | z8 | z8 | z8 | z8 | z8 | z8 | z8 | z8 | z8 | z8 | %75
 F,8 | D,4 C,4 | G,8 | C,8 | B,,8 | F,2 D,2 _E,4 | C,2 D,2 B,,4 | C,8 | F,,2 F,2 B,,4 | F,,8 | z8 | %86
 z8 | z8 | z8 | z8 | F,8- | F,4 E,4 | F,3 E, D,3 C, | B,,4 C,4 | F,,8 | B,,3 B,, B,,2 B,,2 | %96
 F,4 F,4 | B,,4 B,,4 | C,8 | F,,8 | F,3 F, E,2 F,2 | B,,4 F,3 F, | C,2 C,2 G,4 | C,4 F,,2 G,,2 | %104
 A,,4 B,,4 | C,8 | F,,8 | F,3 F, F,2 F,2 | B,,8 | F,,8 |] %110

